X: 169
T: No_91_War_Song.krn
%%abc-version 2.0
%%abcx-abcm2ps-target-version 5.9.1 (29 Sep 2008)
%%abc-creator hum2abc beta
%%abcx-conversion-date 2020/08/10 18:54:56
%%gracespace 0 6 6
%%humdrum-veritas 932060905
%%humdrum-veritas-data 573096628
%%linebreak <none>
%%barnumbers 0
L: 1/8
M: 2/4
%%staves {1 2}
V: 1 clef=bass
V: 2 clef=bass
K: F
[V:1] D/ [I:setbarnb 1]| 
[V:2] z/ | 
[V:1] D<D D3/C/ | 
[V:2] (3!accent!G,, z G,, (3!accent!G,, z G,, | 
[V:1] C<C (3CB,A, ||  
[V:2] (3!accent!G,, z G,, (3!accent!G,, z G,, ||  
[V:1] [M:3/4]A,A,A,7/C/ ||  
[V:2] [M:3/4]z6 ||  
[V:1] [M:2/4]CD D3/C/ | 
[V:2] [M:2/4]z4 | 
[V:1] C<A, (3CB,A, ||  
[V:2] z4 ||  
[V:1] [M:3/4]A,>A,A,7/A,/ | 
[V:2] [M:3/4]z6 | 
[V:1] A,6 | 
[V:2] z6 | 
[V:1] C<C CD D3/C/ ||  
[V:2] z6 ||  
[V:1] [M:2/4]C<A, A,3/G,/ | 
[V:2] [M:2/4]z4 | 
[V:1] F,<F, F,3/D,/ ||  
[V:2] z4 ||  
[V:1] [M:3/4]D,<D,D,2D,3/F,/ ||  
[V:2] [M:3/4]z6 ||  
[V:1] [M:2/4]F,<G, G,3/F,/ | 
[V:2] [M:2/4]z4 | 
[V:1] D,<D, D,3/C,/ ||  
[V:2] z4 ||  
[V:1] [M:3/4]A,,<A,,A,,7/D,/ ||  
[V:2] [M:3/4]z6 ||  
[V:1] [M:2/4]D,<D, D,3/C,/ ||  
[V:2] [M:2/4]z4 ||  
[V:1] [M:3/4]A,,<A,, (3C,B,,A,,A,,2 ||  
[V:2] [M:3/4]z6 ||  
[V:1] [M:2/4]A,,3A,, | 
[V:2] [M:2/4]z4 | 
[V:1] A,,4- | 
[V:2] z4 | 
[V:1] A,,7/z/ |]  
[V:2] z4 |]  


